X:1
T:Di quella pira
T:Di quella pira
T:Giuseppe Verdi
T:Salvatore Cammarano
T:cabaletta
T:by IMSLP - Scritto con MuseScore, un software libero e gratuito: http://musescore.org/it
T:by IMSLP - Scritto con MuseScore, un software libero e gratuito: http://musescore.org/it
T:by IMSLP - Scritto con MuseScore, un software libero e gratuito: http://musescore.org/it
T:by IMSLP - Scritto con MuseScore, un software libero e gratuito: http://musescore.org/it
C:Giuseppe Verdi
Z:Salvatore Caramarano
Z:by IMSLP - Scritto con MuseScore, un software libero e gratuito: http://musescore.org/it
%%score ( 1 2 ) { 3 | 4 }
L:1/8
Q:1/4=100
M:3/4
K:F
V:1 treble-8 nm="Tenore"
V:2 treble-8 
V:3 treble nm="Piano"
V:4 bass 
V:1
"^Allegro." z6 ||[K:C] !>!e2 !>!e2 !>!e2 | (.e/.f/.e/.f/) !>!e4 | !>!c2 !>!c2 !>!c2 | %4
w: |Di quel\- la|pi _ _ _ ra|l'or\- ren\- do|
 (.G/.A/.G/.A/) !>!G4 | !>!g2 !>!g2 !>!g2 | (.e/.f/.e/.f/) !>!f4 | (.d/.e/.d/.e/) d2 !>!e2 | %8
w: fo _ _ _ co|tut\- te le|fi _ _ _ bre|m'ar _ _ _ se.av\- vam\-|
 c2 z2 z2 | !>!e2 !>!e2 !>!e2 | (.e/.f/) (.e/.f/) !>!e4 | (.c2 .c2 .c2) | (.G/.A/.G/.A/) !>!G4 | %13
w: pò!|Em\- pi, spe\-|gne- * te- * la,|o ch'io fra|po _ _ _ co|
"^con tutta forza"!<(! g2 g2 ^g2!<)! |!>(! (a/^g/a/!>)!f/) !>!d4 | !>!f2 !>!e2 !>!d2 | c2 z2 z2 | %17
w: col san\- gue|vo _ _ _ stro|la spe\- gne\-|rò!|
!p! (._e2 .e2 .e2) | (.d/._e/.d/.e/) d4 | c2 c2 c2 | (._B/.c/.B/.c/) B4 | (g2 f2 _e2) | %22
w: E\- ra già|fi _ _ _ glio|pri\- ma d'a\-|mar _ _ _ ti,|non può fre\-|
 (.d/._e/.d/.e/) d4 | (.c2 ._B2 .A2) | G4 z2 |!f! (.e2 e2 .e2) | (.e/.f/.e/.f/) !>!e4 | %27
w: nar _ _ _ mi|il tuo mar\-|tir...|Ma\- drein\- fe\-|li _ _ _ ce,|
 (.c2 .c2 .c2) | (.G/.A/.G/.A/) !>!G4 |!<(! ([Gg]2 [Gg]2 [^G^g]2)!<)! |!>(! (a/^g/a/f/) !>!d4!>)! | %31
w: cor\- roa sal\-|var _ _ _ ti,|o te\- coal\-|me _ _ _ no|
 f2 e2 d2 ||"^Più vivo" c z/ G/ !>!g3 f | e (G/f/) !>!e3 d | c z/ G/ !>!g3 f | e2 z2 z3/2 c/ | %36
w: cor\- roa mo\-|rir, o te\- coal|men cor- * roa mo\-|rir, o te\- coal|men, o|
 (a6- | ag/f/ (ef)) (d!fermata!f) | c2 z z z z | %39
w: te|_ _ _ coa * mo- *|rir!|
V:2
 x6 ||[K:C] x6 | x6 | x6 | x6 | x6 | x6 | x6 | x6 | x6 | x6 | x6 | x6 | x6 | x6 | x6 | x6 | x6 | %18
 x6 | x6 | x6 | x6 | x6 | x6 | x6 | x6 | x6 | x6 | x6 | x6 | x6 | x6 || x6 | x6 | x6 | x6 | (a6 | %37
 ag/f/ ef) x2 | x6 | %39
V:3
!mf! z6 ||[K:C] z6 | (.[Ge]/.[Af]/.[Ge]/.[Af]/) !>![Ge]4 | (.[_Ac]2 .[Ac]2 .[Ac]2) | %4
 .[EG]/.[F=A]/.[EG]/.[FA]/ !>![EG]4 |!8va(! !>![gg']2 !>![gg']2 !>![gg']2 | %6
 .[d'f']/.[e'g']/.[d'f']/.[e'g']/ [d'f']4 | [fd']/[ge']/[fd']/[ge']/ [fd']2 !>![ge']2 | %8
 [ec']2!8va)! z2 z2 | z6 | .[Ge]/.[Af]/.[Ge]/.[Af]/ !>![Ge]4 | (.[_Ac]2 .[Ac]2 .[Ac]2) | %12
 (.[EG]/.[FA]/.[EG]/.[FA]/) !>![EG]4 |!f!!8va(! [gg']2 [gg']2 [^g^g']2 | %14
{/b'} (a'/^g'/a'/f'/) !>!d'4 | !>![ff']2 !>![ee']2 !>![dd']2 | [cc']2!8va)! z2 z2 |!p! z6 | %18
 .[_Bd]/.[c_e]/.[Bd]/.[ce]/ [Bd]4 | z6 | .[G_B]/.[_Ac]/.[GB]/.[Ac]/ [GB]4 | z6 | %22
 .[_Bd]/.[c_e]/.[Bd]/.[ce]/ [Bd]4 | z6 | z [Gg]/[Gg]/!<(! .[Aa].[=B=b].[cc'].[dd']!<)! | %25
!f!!8va(! !>![ee']2 !>![ee']2 !>![ee']2!8va)! | .[Gf]/.[Af]/.[Ge]/.[Af]/ !>![Ge]4 | %27
!p! (.[_Ac]2 .[Ac]2 .[Ac]2) | .[EG]/.[FA]/.[EG]/.[FA]/ !>![EG]4 | %29
!<(!!8va(! [gg']2 [gg']2 [^g^g']2!<)! |{/b'} (.a'/.^g'/.a'/.f'/) !>!d'4 | %31
 !>![ff']2 !>![ee']2 !>![dd']2!8va)! || [cc'] [Gceg]/[Gceg]/ !>![Gceg]3 f | e (G/f/) !>!e3 d | %34
 c!ff! [Gceg]/[Gceg]/ !>![Gceg]3 f | e[B^d]/[Bd]/ [=ce][eg][eg][e^g] | %36
!ff! [Bdfa][Bdfa]/[Bdfa]/ [Bdfa][Bdfa][Bdfa][Bdfa] | [Bdfa]2 z2 !fermata!z2 | %38
 (c'/b/c'/d'/ _e'/c'/g/_e/ c/G/_E/C/) | %39
V:4
 C,[G,CE]/[G,CE]/[G,CE][G,CE] E,[G,CE] ||[K:C] C,[G,CE]/[G,CE]/[G,CE][G,CE] E,[G,CE] | %2
 C,[G,CE]/[G,CE]/[G,CE][G,CE] E,[G,CE] | C,[_A,CF]/[A,CF]/[A,CF][A,CF] F,[G,CF] | %4
 C,[G,C]/[G,C]/[G,C][G,C] E,[G,C] | C,[G,CE]/[G,CE]/ [G,CE][G,CE] E,[G,CE] | %6
 G,,[G,B,F]/[G,B,F]/ [G,B,F][G,B,F]B,,[G,B,F] | G,,[G,B,F]/[G,B,F]/ [G,B,F][G,B,F] G,,[G,B,F] | %8
 C,[G,C]/[G,C]/[G,C][G,C]E,[G,C] | C,[G,CE]/[G,CE]/[G,CE][G,CE] E,[G,CE] | %10
 C,[G,CE]/[G,CE]/[G,CE][G,CE] E,[G,CE] | C,[_A,CF]/[A,CF]/[A,CF][A,CF] F,[A,CF] | %12
 C,[G,C]/[G,C]/[G,C][G,C] E,[G,C] | C,[G,CE]/[G,CE]/[G,CE][G,CE] E,[G,CE] | %14
 G,,[G,B,F]/[G,B,F]/[G,B,F][G,B,F] B,,[G,B,F] | G,,[G,B,F]/[G,B,F]/[G,B,F][G,B,F] B,,[G,B,F] | %16
 C,[G,CE]/[G,CE]/[G,CE][G,CE] E,[G,CE] | C,[G,C_E]/[G,CE]/[G,CE][G,CE] _E,[G,CE] | %18
 D,[_B,DG]/[B,DG]/[B,DG][B,DG] G,[B,DG] | D,[A,D^F]/[A,DF]/[A,DF][A,DF] ^F,[A,DF] | %20
 _E,[_B,_E]/[B,E]/[B,E][B,E] G,[B,E] | C,[G,C_E]/[G,CE]/[G,CE][G,CE] _E,[G,CE] | %22
 D,[_B,DG]/[B,DG]/[B,DG][B,DG] D,[B,DG] | D,[A,D^F]/[A,DF]/[A,DF][A,DF] D,[A,DF] | %24
 G, [G,,=B,,D,=F,]/[G,,B,,D,F,]/ [G,,B,,D,F,][G,,B,,D,F,][G,,B,,D,F,][G,,B,,D,F,] | %25
 C,[G,CE]/[G,CE]/[G,CE][G,CE] E,[G,CE] | C,[G,CE]/[G,CE]/[G,CE][G,CE] E,[G,CE] | %27
 C,[_A,CF]/[A,CF]/[A,CF][A,CF] z [A,CF] | C,[G,C]/[G,C]/[G,C][G,C] E,[G,C] | %29
 C,[G,CE]/[G,CE]/[G,CE][G,CE] E,[G,CE] | G,,[G,B,F]/[G,B,F]/[G,B,F][G,B,F] B,,[G,B,F] | %31
 G,,[G,B,F]/[G,B,F]/[G,B,F][G,B,F] G,,[G,B,F] || %32
 [CE] [_B,,_B,]/[B,,B,]/ !>![B,,B,] .[B,C].[A,C].[_A,C] | G,[CE] G,[CE] G,[=B,F] | %34
 [CE] [_B,,_B,]/[B,,B,]/ !>![B,,B,]!p! .C.[A,C].[_A,C] | %35
 [G,C][G,,G,]/[G,,G,]/ [G,,G,][G,,G,][G,,G,][A,,G,] | %36
 [G,,,G,,][G,,,G,,]/[G,,,G,,]/ [G,,,G,,][G,,,G,,][G,,,G,,][G,,,G,,] | [G,,,G,,]2 z2 !fermata!z2 | %38
 !arpeggio![C,,_E,,G,,C,] !>![C,_E,G,C]4 z | %39

